X:1
T:Liebeswerbung
T:Johannes Steurlein (1546-1613) Satz: Friedrich Hegar 
T:Volkslied des 16. Jahrhunderts
T:Liebeswerbung
T:CPDL   —   Creative Commons Attribution Non Commercial 3.0
C:Johannes Steurlein
Z:CPDL   —   Creative Commons Attribution Non Commercial 3.0
%%score [ ( 1 2 ) ( 3 4 ) ]
L:1/8
Q:1/4=90
M:4/4
K:Eb
V:1 treble-8 nm="T"
V:2 treble-8 
V:3 bass nm="B"
V:4 bass 
V:1
!p!"^Sehr getragen" B2 |!<(! ef ga gf!<)!!>(! ed | c4!>)! c2!p! c2 | B2 e2 e2 d2 | %4
w: 1. Mit|Lieb * bin * ich * um- *|fan- gen, Herz-|al- ler- liebs- te|
w: nach|dir * steht * mein * Ver- *|lan- gen, könnt's|o- der möchts ge-|
w: ||||
w: 2. Herz-|lieb, * denk * an * die *|Treu- e, die|d'mir ver- hei- ßen|
w: und|lass * dichs * nit * ge- *|reu- en ste-|tig ohn Un- ter-|
w: 3. Wie|soll * ich * von * dir *|las- sen? Es|kost' mir mei- nen|
w: da-|zu * zwingt * mich * ohn' *|Ma- ßen, dass|ich nit von dir|
!>(! e4-!>)! e z :|!mf![Q:1/4=96]"^ein klein wenig belebter" g2 | g2 g2 g2 e2 | f4 f2 f2 | %8
w: mein, _|_|||
w: sein. _|_|||
w: ||||
w: hast, _|_|||
w: lass! _|_|||
w: Leib, _|_|||
w: scheid. _|_|||
!<(! ef ga g!<)!!>(!f ed/c/!>)! |[Q:1/4=88]"^etwas\nzurückhalten" d6 |!p! B2 | %11
w: |||
w: |||
w: |||
w: |||
w: |||
w: |||
w: |||
[Q:1/4=90]"^erstes Zeitmaß" ef ga gf ed |!>(! c4!>)! c2!pp![Q:1/4=80]"^ein wenig zurückhalten" c2 | %13
w: ||
w: ||
w: ||
w: ||
w: ||
w: ||
w: ||
 B2 e2 e2 d2 | e6 |] %15
w: ||
w: ||
w: ||
w: ||
w: ||
w: ||
w: ||
V:2
 B2 | B2 B2 B2 B2 | A4 A2 A2 | G2 c2 B3 F | G4- G x :| e2 | e2 e2 e2 e2 | e4 d2 d2 | %8
w: |||||1. Könnt|ich dein Gunst er-|wer- ben, käm|
w: |||||2.  Dein|Treu hast mir ver-|spro- chen in|
w: |||||3.  Dir|hab ich mich er-|ge- ben in|
 c3 c ed cB/=A/ | (G2 d4) | B2 | B2 =B2 c2 _B2 | B4 A2 A2 | G2 c2 B2 F2 | G6 |] %15
w: ich aus gro- * ßer _ _|Not, _|viel|lie- ber wollt' ich|ster- ben und|wünsch mir selbst den|Tod.|
w: rech- ter Ste- * tig- * *|keit, _|'s~bleibt|sel- ten un- ge-|ro- chen. Feins-|lieb, nit von mir|scheid!|
w: rech- ter Ste- * tig- * *|keit, _|die-|weil ich hab das|Le- ben. Herz-|lieb, ver- giss nit|mein!|
V:3
!p! B,2 |!<(! G,2 B,2 E,2!<)! E,2 | E,2 E,4!p! E,F, | G,2 A,2 F,2 B,2 |!>(! B,4-!>)! B, z :| %5
!mf! B,2 | E2 B,2 E,F, G,=A, | B,4 B,2 B,2 | G,3 G, G,2 G,2 |!<(! G,=A,=B,CB,A,!<)! |!p! G,2 | %11
 G,2 F,2 E,2 E,2 |!>(! (E,2 =E,2) F,2!>)!!pp! _E,F, | G,2 G,2 F,2 B,2 | B,6 |] %15
V:4
 B,2 | E,2 E,2 E,2 G,,2 | A,,2 (A,,3 B,,) C,D, | E,2 A,,2 B,,2 B,,2 | E,4- E, x :| B,2 | %6
 E2 B,2 E,F, G,=A, | (B,2 F,2) B,,2 B,,2 | C,3 C, C,2 C,E, | G,=A,=B,CB,A, | G,F, | %11
 E,2 D,2 C,2 G,,2 | (A,,2 G,,2) F,,A,, C,D, | E,2 A,,2 B,,2 B,,2 | [E,,E,]6 |] %15

